X:1
T:Title
%%score [ ( 1 2 ) ( 3 4 ) ]
L:1/8
Q:1/4=120
M:4/4
K:C
V:1 treble nm=" " snm=" "
V:2 treble 
V:3 bass nm="Midi_74"
V:4 bass 
V:1
[K:Eb]"^H.W. Baker""^1821-1877" E2 E2 G2"^Lord, thy word abideth" A2 | B4 B4 | c2 d2 e2 B2 | %3
w: Lord, thy word a-|bid- eth,|and our foot- steps|
w: |||
w: When the storms are|o'er us,|and dark clouds be-|
 (G2 =A2)"^Adapted from a Medieval German melody""^by W.H. Monk (1823-1889)" B4 | A2 F2 G2 A2 | %5
w: guid * eth;|who its truth be-|
w: ||
w: fore * us,|then its light dir-|
 (G2 F2) E4 | D2 E2 F2 G2 | F4 E4 |"^Verses 4, 5 and 6" E2 E2 G2 A2 | B4 B4 | c2 d2 e2 B2 | %11
w: liev * eth,|light and joy re-|ceiv- eth.|Who can tell the|plea- sure,|who re- count the|
w: ||||||
w: ect * eth,|and our way pro-|tec- teth.|O that we dis-|cern- ing|its most ho- ly|
 (G2 =A2) B4 | A2 F2 G2 A2 | (G2 F2) E4 | D2 E2 F2 G2 | F4 E4 |] %16
w: trea * sure|by thy word im-|part * ed|to the sim- ple-|heart- ed?|
w: |||||
w: learn * ing,|Lord, may love and|fear * thee,|ev- er- more be|near thee!|
V:2
[K:Eb] B,2 B,2 E2 E2 | (E2 D2) E4 | E2 F2 G2 F2 | E4 D4 | E2 F2 E2 E2 | (E2 D2) E4 | %6
w: ||||||
w: When our foes are|near * us,|then thy word doth|cheer us,|word of con- sol-|a * tion,|
 B,2 B,2 D2 E2 | (E2 D2) E4 | B,2 B,2 E2 E2 | (E2 D2) E4 | E2 F2 G2 F2 | E4 D4 | E2 F2 E2 E2 | %13
w: |||||||
w: mes- sage of sal-|va- * tion.|Word of mer- cy,|giv- * ing|suc- cour to the|liv- ing;|word of life, sup-|
 (E2 D2) E4 | B,2 B,2 D2 E2 | (E2 D2) E4 |] %16
w: |||
w: ply * ing|com- fort to the|dy * ing.|
V:3
[K:Eb] G,2 G,2 B,2 A,2 | F,4 G,4 | A,2 A,2 B,2 B,2 | (B,2 C2) F,4 | E,2 B,2 B,2 C2 | B,4 G,4 | %6
 B,2 B,2 A,2 G,2 | B,4 G,4 | G,2 G,2 B,2 A,2 | F,4 G,4 | A,2 A,2 B,2 B,2 | (B,2 C2) F,4 | %12
"^This edition produced by Andrew Sims 2014" E,2 B,2 B,2 C2 | B,4 G,4 | B,2 B,2 A,2 G,2 | %15
 B,4 G,4 |] %16
V:4
[K:Eb] E,2 E,2 E,2 C,2 | B,,4 E,4 | A,2 F,2 E,2 D,2 | (E,2 C,2) B,,4 | C,2 D,2 E,2 A,,2 | %5
 B,,4 C,4 | B,,2 G,2 F,2 E,2 | B,,4 E,4 | E,2 E,2 E,2 C,2 | B,,4 E,4 | A,2 F,2 E,2 D,2 | %11
 (E,2 C,2) B,,4 | C,2 D,2 E,2 A,,2 | B,,4 C,4 | B,,2 G,2 F,2 E,2 | B,,4 E,4 |] %16

